X: 40082
T: Thumbs
R: jig
M: 6/8
K: Amixolydian
A2 c eAA|AGE GGG|GFD EEE|EcG AGE|
A2 c eAA|AGE GGG|GFD EEE|1 EcG A2 G:|2 EcG A3||
cde eec|deg ggc|deg age|.dcA AAE|
cde eec|deg ggc|deg eee|.ec'g a3:|

